packages/radix-icons/twoTone/15/chevron-right.svg

<svg width="15" height="15" fill="none" xmlns="http://www.w3.org/2000/svg">
  <path
    fill-rule="evenodd"
    clip-rule="evenodd"
    d="M5.29326 2.79272C5.68378 2.4022 6.31695 2.4022 6.70747 2.79273L10.7075 6.79273C10.895 6.98026 11.0004 7.23462 11.0004 7.49983C11.0004 7.76505 10.895 8.0194 10.7075 8.20694L6.70747 12.2069C6.31695 12.5975 5.68378 12.5975 5.29326 12.2069C4.90274 11.8164 4.90274 11.1832 5.29326 10.7927L8.58615 7.49983L5.29326 4.20694C4.90274 3.81641 4.90274 3.18325 5.29326 2.79272Z"
    fill="currentColor"
    opacity=".2"
  />
  <path
    fill-rule="evenodd"
    clip-rule="evenodd"
    d="M5.64681 3.14628C5.84208 2.95102 6.15866 2.95102 6.35392 3.14628L10.3539 7.14628C10.4477 7.24005 10.5004 7.36722 10.5004 7.49983C10.5004 7.63244 10.4477 7.75962 10.3539 7.85339L6.35392 11.8534C6.15866 12.0486 5.84207 12.0486 5.64681 11.8534C5.45155 11.6581 5.45155 11.3415 5.64681 11.1463L9.29326 7.49983L5.64681 3.85338C5.45155 3.65812 5.45155 3.34154 5.64681 3.14628Z"
    fill="currentColor"
  />
</svg>

<svg width="15" height="15" fill="none" xmlns="http://www.w3.org/2000/svg">
  <path
    fill-rule="evenodd"
    clip-rule="evenodd"
    d="M5.293 2.793a1 1 0 011.414 0l4 4a1 1 0 010 1.414l-4 4a1 1 0 11-1.414-1.414L8.586 7.5 5.293 4.207a1 1 0 010-1.414z"
    fill="currentColor"
    opacity=".2"
  />
  <path
    fill-rule="evenodd"
    clip-rule="evenodd"
    d="M5.647 3.146a.5.5 0 01.707 0l4 4a.5.5 0 010 .707l-4 4a.5.5 0 01-.707-.707L9.293 7.5 5.647 3.853a.5.5 0 010-.707z"
    fill="currentColor"
  />
</svg>
